!!!OTL: JOHANN VON NEPOMUK
!!!ARE: Europa, Mitteleuropa, Deutschland, Ost - Preussen, Ermland
!!!SCT: E2104
!!!YEM: Copyright 1995, estate of Helmut Schaffrath.
**kern
*ICvox
*Ivox
*M3/4
*k[b-e-a-]
*E-:
=1
{4e-
4g
4b-
=2
4ee-
8dd
8cc
4b-}
=3
{4cc
4b-
8ee-
8cc
=4
4.b-
8a-
4g}
=5
{8g
8b-
8b-
8g
8a-
8f
=6
8f
8a-
8a-
8f
8g
8e-}
=7
{8g
8b-
8b-
8g
8a-
8f
=8
8f
8a-
8a-
8f
8g
8e-}
=9
{8b-
8ee-
4g
4f
=10
2e-
4r}
==
!!!AGN: geistlich, Heiligen - Lied, Legende
!!!ONB: ESAC (Essen Associative Code) Database: ERK3
!!!AMT: simple triple
!!!AIN: vox
!!!EED: Helmut Schaffrath
!!!EEV: 1.0
*-
